X: 100337
T: THE FINE OLD MAN versus GLADSTONE'S HORNPIPE
C: Composed by W.B. Laybourn, Edinburgh, 1884
R: hornpipe, reel
B: K\"ohler's Violin Repository, v.3, 1885 p.235 #3
F: http://www.archive.org/details/klersviolinrepos03rugg
Z: 2012 John Chambers <jc:trillian.mit.edu>
M: C|
L: 1/8
K: Em
|:\
ve4 A4 | BcBA G2F2 | E2c2 B2A2 | G2F2 EFGB |\
e4 A4 | BcBA G2F2 | E2c2 B2A2 | G2uF2 uE2z2 :|
|: vEFE^D EFGA | BcBA BAGF | E2F2 G2A2 | B2^c2 d2^d2 |\
e4 A4 | BcBA GFED | E2c2 B2A2 | G2uF2 uE2z2 :|

%%sep 2 1 500

